austria/municipalities/70921.svg

<?xml version="1.0" encoding="UTF-8"?>
<!DOCTYPE svg PUBLIC "-//W3C//DTD SVG 1.1//EN" "http://www.w3.org/Graphics/SVG/1.1/DTD/svg11.dtd">
<svg xmlns="http://www.w3.org/2000/svg" version="1.1" width="166px" height="192px" style="shape-rendering:geometricPrecision; text-rendering:geometricPrecision; image-rendering:optimizeQuality; fill-rule:evenodd; clip-rule:evenodd" xmlns:xlink="http://www.w3.org/1999/xlink">
<g><path style="opacity:1" fill="#07070a" d="M -0.5,-0.5 C 54.8333,-0.5 110.167,-0.5 165.5,-0.5C 165.5,39.5 165.5,79.5 165.5,119.5C 157.038,159.629 132.705,183.629 92.5,191.5C 85.5,191.5 78.5,191.5 71.5,191.5C 30.9271,182.927 6.9271,158.261 -0.5,117.5C -0.5,78.1667 -0.5,38.8333 -0.5,-0.5 Z"/></g>
<g><path style="opacity:1" fill="#253167" d="M 153.5,122.5 C 152.812,113.187 152.312,103.853 152,94.5C 151.538,90.5785 150.038,87.2452 147.5,84.5C 146.833,81.8333 145.167,80.1667 142.5,79.5C 140.351,77.2542 137.684,75.7542 134.5,75C 127.833,73.6667 121.167,72.3333 114.5,71C 110.835,69.503 107.502,67.503 104.5,65C 110.983,57.6828 117.65,50.5162 124.5,43.5C 122.283,40.9316 121.116,37.9316 121,34.5C 120.667,29.5 120.333,24.5 120,19.5C 117.82,14.1466 113.987,10.8133 108.5,9.5C 109.716,14.8449 109.549,20.1782 108,25.5C 104.557,31.9506 101.557,38.6172 99,45.5C 97.7822,52.3482 98.6155,58.8482 101.5,65C 101.011,66.1385 100.678,67.3052 100.5,68.5C 98.1667,71.1667 95.8333,73.8333 93.5,76.5C 90.6057,77.8823 88.1057,79.8823 86,82.5C 85.3333,81.8333 84.6667,81.1667 84,80.5C 82.7559,71.9088 82.0892,63.2421 82,54.5C 75.7349,42.1756 72.7349,42.8423 73,56.5C 68.2247,64.7151 64.558,73.3817 62,82.5C 60.4394,90.5263 61.9394,97.8597 66.5,104.5C 65.8333,105.5 65.1667,106.5 64.5,107.5C 60.5,109.5 57.5,112.5 55.5,116.5C 54.5,118.167 53.1667,119.5 51.5,120.5C 49.39,119.547 48.2233,117.881 48,115.5C 47.6667,107.833 47.3333,100.167 47,92.5C 45.7634,88.0289 43.0967,84.6956 39,82.5C 38.7273,87.2291 38.0607,91.8958 37,96.5C 30.7999,105.766 26.9666,115.933 25.5,127C 26.2067,130.2 27.04,133.367 28,136.5C 28.4224,138.426 29.5891,139.426 31.5,139.5C 31.7828,140.289 32.2828,140.956 33,141.5C 38.4677,135.031 44.301,128.864 50.5,123C 51.0944,122.536 51.7611,122.369 52.5,122.5C 53.0577,123.79 54.0577,124.623 55.5,125C 63.4936,127.274 71.4936,129.441 79.5,131.5C 82.8333,132.833 85.1667,135.167 86.5,138.5C 87.0848,146.518 87.9181,154.518 89,162.5C 89.8428,166.2 91.6761,169.2 94.5,171.5C 98.5238,174.531 102.524,177.531 106.5,180.5C 107.429,181.315 108.429,182.148 109.5,183C 63.9947,194.993 30.4947,180.159 9,138.5C 6.44097,131.372 4.7743,124.038 4,116.5C 3.50001,78.8348 3.33335,41.1681 3.5,3.5C 56.1667,3.5 108.833,3.5 161.5,3.5C 161.667,41.8348 161.5,80.1681 161,118.5C 160.548,121.877 159.882,125.211 159,128.5C 156.932,126.604 155.099,124.604 153.5,122.5 Z"/></g>
<g><path style="opacity:1" fill="#14110f" d="M 142.5,79.5 C 133.032,76.3635 123.366,73.8635 113.5,72C 110.006,70.4205 106.673,68.5872 103.5,66.5C 102.482,67.1925 101.482,67.8592 100.5,68.5C 100.678,67.3052 101.011,66.1385 101.5,65C 98.6155,58.8482 97.7822,52.3482 99,45.5C 101.557,38.6172 104.557,31.9506 108,25.5C 109.549,20.1782 109.716,14.8449 108.5,9.5C 113.987,10.8133 117.82,14.1466 120,19.5C 120.333,24.5 120.667,29.5 121,34.5C 121.116,37.9316 122.283,40.9316 124.5,43.5C 117.65,50.5162 110.983,57.6828 104.5,65C 107.502,67.503 110.835,69.503 114.5,71C 121.167,72.3333 127.833,73.6667 134.5,75C 137.684,75.7542 140.351,77.2542 142.5,79.5 Z"/></g>
<g><path style="opacity:1" fill="#e3a21c" d="M 110.5,11.5 C 114.176,13.0108 116.676,15.6775 118,19.5C 118.076,27.6708 119.243,35.6708 121.5,43.5C 115.872,50.4635 109.872,57.1302 103.5,63.5C 99.2732,57.7388 98.4398,51.4055 101,44.5C 103.139,38.8878 105.806,33.5545 109,28.5C 110.289,22.9116 110.789,17.2449 110.5,11.5 Z"/></g>
<g><path style="opacity:1" fill="#e5a41c" d="M 142.5,79.5 C 143.833,81.5 145.5,83.1667 147.5,84.5C 149.164,88.3286 150.331,92.3286 151,96.5C 151.333,104.167 151.667,111.833 152,119.5C 152.232,120.737 152.732,121.737 153.5,122.5C 154.53,125.699 156.197,128.532 158.5,131C 156.512,138.141 153.345,144.641 149,150.5C 147.2,149.68 145.366,149.014 143.5,148.5C 140.5,146.167 137.833,143.5 135.5,140.5C 134.671,136.514 133.837,132.514 133,128.5C 132.248,125.106 132.415,121.773 133.5,118.5C 132.756,115.557 132.256,112.557 132,109.5C 131.626,107.509 130.793,105.842 129.5,104.5C 128.581,101.911 126.914,99.9108 124.5,98.5C 123.341,96.7497 121.674,95.7497 119.5,95.5C 110.244,92.9728 100.91,90.3061 91.5,87.5C 90.1999,86.1733 88.8665,84.84 87.5,83.5C 89.5227,81.1472 91.5227,78.8138 93.5,76.5C 95.8333,73.8333 98.1667,71.1667 100.5,68.5C 101.482,67.8592 102.482,67.1925 103.5,66.5C 106.673,68.5872 110.006,70.4205 113.5,72C 123.366,73.8635 133.032,76.3635 142.5,79.5 Z"/></g>
<g><path style="opacity:1" fill="#141314" d="M 142.5,79.5 C 145.167,80.1667 146.833,81.8333 147.5,84.5C 145.5,83.1667 143.833,81.5 142.5,79.5 Z"/></g>
<g><path style="opacity:1" fill="#151210" d="M 93.5,76.5 C 91.5227,78.8138 89.5227,81.1472 87.5,83.5C 88.8665,84.84 90.1999,86.1733 91.5,87.5C 89.2549,86.3648 86.9216,85.8648 84.5,86C 79.6846,91.6496 74.6846,97.1496 69.5,102.5C 76.3819,107.294 84.0485,109.794 92.5,110C 95.4757,110.705 98.1423,111.871 100.5,113.5C 94.6402,111.703 88.6402,110.536 82.5,110C 77.2255,107.856 71.8922,106.023 66.5,104.5C 61.9394,97.8597 60.4394,90.5263 62,82.5C 64.558,73.3817 68.2247,64.7151 73,56.5C 72.7349,42.8423 75.7349,42.1756 82,54.5C 82.0892,63.2421 82.7559,71.9088 84,80.5C 84.6667,81.1667 85.3333,81.8333 86,82.5C 88.1057,79.8823 90.6057,77.8823 93.5,76.5 Z"/></g>
<g><path style="opacity:1" fill="#e3a31c" d="M 75.5,48.5 C 78.5019,50.292 80.3352,52.9586 81,56.5C 80.7797,63.1552 80.7797,69.8219 81,76.5C 81.2718,79.4324 82.4385,81.9324 84.5,84C 79.3506,90.3163 73.684,96.1496 67.5,101.5C 64.3575,98.1589 62.6908,94.1589 62.5,89.5C 63.0678,84.3566 64.2345,79.3566 66,74.5C 68.6822,69.1356 71.3489,63.8022 74,58.5C 75.0429,55.2432 75.5429,51.9099 75.5,48.5 Z"/></g>
<g><path style="opacity:1" fill="#253166" d="M 91.5,87.5 C 94.1284,89.4811 97.1284,90.9811 100.5,92C 106.836,93.2142 113.169,94.3809 119.5,95.5C 120.659,97.2503 122.326,98.2503 124.5,98.5C 126.914,99.9108 128.581,101.911 129.5,104.5C 131.108,113.727 131.941,123.06 132,132.5C 132.387,135.599 133.554,138.266 135.5,140.5C 137.833,143.5 140.5,146.167 143.5,148.5C 144.914,150.054 146.581,151.388 148.5,152.5C 144.762,158.129 140.428,163.296 135.5,168C 133.833,168.667 132.167,168.667 130.5,168C 126.778,165.81 123.111,163.644 119.5,161.5C 118.5,161.167 117.833,160.5 117.5,159.5C 115.421,155.672 113.588,151.672 112,147.5C 111.974,138.701 110.974,130.034 109,121.5C 107.587,117.252 104.754,114.585 100.5,113.5C 98.1423,111.871 95.4757,110.705 92.5,110C 84.0485,109.794 76.3819,107.294 69.5,102.5C 74.6846,97.1496 79.6846,91.6496 84.5,86C 86.9216,85.8648 89.2549,86.3648 91.5,87.5 Z"/></g>
<g><path style="opacity:1" fill="#161313" d="M 91.5,87.5 C 100.91,90.3061 110.244,92.9728 119.5,95.5C 113.169,94.3809 106.836,93.2142 100.5,92C 97.1284,90.9811 94.1284,89.4811 91.5,87.5 Z"/></g>
<g><path style="opacity:1" fill="#151315" d="M 119.5,95.5 C 121.674,95.7497 123.341,96.7497 124.5,98.5C 122.326,98.2503 120.659,97.2503 119.5,95.5 Z"/></g>
<g><path style="opacity:1" fill="#0e0d0e" d="M 147.5,84.5 C 150.038,87.2452 151.538,90.5785 152,94.5C 152.312,103.853 152.812,113.187 153.5,122.5C 152.732,121.737 152.232,120.737 152,119.5C 151.667,111.833 151.333,104.167 151,96.5C 150.331,92.3286 149.164,88.3286 147.5,84.5 Z"/></g>
<g><path style="opacity:1" fill="#13100e" d="M 51.5,120.5 C 51.8333,121.167 52.1667,121.833 52.5,122.5C 51.7611,122.369 51.0944,122.536 50.5,123C 44.301,128.864 38.4677,135.031 33,141.5C 32.2828,140.956 31.7828,140.289 31.5,139.5C 29.5891,139.426 28.4224,138.426 28,136.5C 27.04,133.367 26.2067,130.2 25.5,127C 26.9666,115.933 30.7999,105.766 37,96.5C 38.0607,91.8958 38.7273,87.2291 39,82.5C 43.0967,84.6956 45.7634,88.0289 47,92.5C 47.3333,100.167 47.6667,107.833 48,115.5C 48.2233,117.881 49.39,119.547 51.5,120.5 Z"/></g>
<g><path style="opacity:1" fill="#e4a31c" d="M 31.5,139.5 C 26.4318,130.382 26.2651,121.048 31,111.5C 33.079,107.007 35.4123,102.674 38,98.5C 39.3134,94.5796 40.3134,90.5796 41,86.5C 42.7134,87.8782 44.0467,89.5448 45,91.5C 45.3333,99.8333 45.6667,108.167 46,116.5C 46.972,118.305 48.1387,119.972 49.5,121.5C 43.7372,127.93 37.7372,133.93 31.5,139.5 Z"/></g>
<g><path style="opacity:1" fill="#e5a41c" d="M 66.5,104.5 C 71.8922,106.023 77.2255,107.856 82.5,110C 88.6402,110.536 94.6402,111.703 100.5,113.5C 103.858,115.7 106.358,118.7 108,122.5C 109.035,131.151 110.035,139.818 111,148.5C 112.172,152.858 114.339,156.525 117.5,159.5C 117.833,160.5 118.5,161.167 119.5,161.5C 122.867,165.68 127.2,168.513 132.5,170C 127.168,174.671 121.168,178.337 114.5,181C 111.808,181.43 109.141,181.263 106.5,180.5C 102.524,177.531 98.5238,174.531 94.5,171.5C 90.2691,163.431 88.4357,154.764 89,145.5C 88.8442,142.809 88.0109,140.476 86.5,138.5C 85.1667,135.167 82.8333,132.833 79.5,131.5C 79.3893,130.883 79.056,130.383 78.5,130C 69.6792,127.938 61.0125,125.438 52.5,122.5C 52.1667,121.833 51.8333,121.167 51.5,120.5C 53.1667,119.5 54.5,118.167 55.5,116.5C 58.8333,113.833 61.8333,110.833 64.5,107.5C 65.1667,106.5 65.8333,105.5 66.5,104.5 Z"/></g>
<g><path style="opacity:1" fill="#161416" d="M 129.5,104.5 C 130.793,105.842 131.626,107.509 132,109.5C 132.256,112.557 132.756,115.557 133.5,118.5C 132.415,121.773 132.248,125.106 133,128.5C 133.837,132.514 134.671,136.514 135.5,140.5C 133.554,138.266 132.387,135.599 132,132.5C 131.941,123.06 131.108,113.727 129.5,104.5 Z"/></g>
<g><path style="opacity:1" fill="#161519" d="M 64.5,107.5 C 61.8333,110.833 58.8333,113.833 55.5,116.5C 57.5,112.5 60.5,109.5 64.5,107.5 Z"/></g>
<g><path style="opacity:1" fill="#fdfdfd" d="M -0.5,117.5 C 6.9271,158.261 30.9271,182.927 71.5,191.5C 47.5,191.5 23.5,191.5 -0.5,191.5C -0.5,166.833 -0.5,142.167 -0.5,117.5 Z"/></g>
<g><path style="opacity:1" fill="#fdfdfd" d="M 165.5,119.5 C 165.5,143.5 165.5,167.5 165.5,191.5C 141.167,191.5 116.833,191.5 92.5,191.5C 132.705,183.629 157.038,159.629 165.5,119.5 Z"/></g>
<g><path style="opacity:1" fill="#151313" d="M 52.5,122.5 C 61.0125,125.438 69.6792,127.938 78.5,130C 79.056,130.383 79.3893,130.883 79.5,131.5C 71.4936,129.441 63.4936,127.274 55.5,125C 54.0577,124.623 53.0577,123.79 52.5,122.5 Z"/></g>
<g><path style="opacity:1" fill="#15151b" d="M 100.5,113.5 C 104.754,114.585 107.587,117.252 109,121.5C 110.974,130.034 111.974,138.701 112,147.5C 113.588,151.672 115.421,155.672 117.5,159.5C 114.339,156.525 112.172,152.858 111,148.5C 110.035,139.818 109.035,131.151 108,122.5C 106.358,118.7 103.858,115.7 100.5,113.5 Z"/></g>
<g><path style="opacity:1" fill="#1b191b" d="M 86.5,138.5 C 88.0109,140.476 88.8442,142.809 89,145.5C 88.4357,154.764 90.2691,163.431 94.5,171.5C 91.6761,169.2 89.8428,166.2 89,162.5C 87.9181,154.518 87.0848,146.518 86.5,138.5 Z"/></g>
</svg>

<svg xmlns="http://www.w3.org/2000/svg" width="166" height="192" style="shape-rendering:geometricPrecision;text-rendering:geometricPrecision;image-rendering:optimizeQuality;fill-rule:evenodd;clip-rule:evenodd"><path style="opacity:1" fill="#07070a" d="M-.5-.5h166v120c-8.462 40.129-32.795 64.129-73 72h-21c-40.573-8.573-64.573-33.239-72-74V-.5z"/><path style="opacity:1" fill="#253167" d="M153.5 122.5a694.145 694.145 0 0 1-1.5-28c-.462-3.921-1.962-7.255-4.5-10-.667-2.667-2.333-4.333-5-5-2.149-2.246-4.816-3.746-8-4.5l-20-4a37.885 37.885 0 0 1-10-6 606.805 606.805 0 0 1 20-21.5c-2.217-2.568-3.384-5.568-3.5-9l-1-15c-2.18-5.353-6.013-8.687-11.5-10 1.216 5.345 1.049 10.678-.5 16a162.906 162.906 0 0 0-9 20c-1.218 6.848-.385 13.348 2.5 19.5a14.102 14.102 0 0 0-1 3.5l-7 8c-2.894 1.382-5.394 3.382-7.5 6l-2-2a195.104 195.104 0 0 1-2-26c-6.265-12.324-9.265-11.658-9 2a111.421 111.421 0 0 0-11 26c-1.56 8.026-.06 15.36 4.5 22l-2 3c-4 2-7 5-9 9-1 1.667-2.333 3-4 4-2.11-.953-3.277-2.619-3.5-5l-1-23c-1.237-4.471-3.903-7.804-8-10a83.719 83.719 0 0 1-2 14c-6.2 9.266-10.033 19.433-11.5 30.5.707 3.2 1.54 6.367 2.5 9.5.422 1.926 1.59 2.926 3.5 3 .283.789.783 1.456 1.5 2A228.436 228.436 0 0 1 50.5 123a2.429 2.429 0 0 1 2-.5c.558 1.29 1.558 2.123 3 2.5a977.34 977.34 0 0 0 24 6.5c3.333 1.333 5.667 3.667 7 7a389.698 389.698 0 0 0 2.5 24c.843 3.7 2.676 6.7 5.5 9 4.024 3.031 8.024 6.031 12 9a81.316 81.316 0 0 0 3 2.5C63.995 194.993 30.495 180.159 9 138.5a92.996 92.996 0 0 1-5-22c-.5-37.665-.667-75.332-.5-113h158c.167 38.335 0 76.668-.5 115a79.066 79.066 0 0 1-2 10 45.494 45.494 0 0 1-5.5-6z"/><path style="opacity:1" fill="#14110f" d="M142.5 79.5a224.769 224.769 0 0 0-29-7.5 72.527 72.527 0 0 1-10-5.5c-1.018.692-2.018 1.36-3 2a14.102 14.102 0 0 1 1-3.5c-2.885-6.152-3.718-12.652-2.5-19.5a162.906 162.906 0 0 1 9-20c1.549-5.322 1.716-10.655.5-16 5.487 1.313 9.32 4.647 11.5 10l1 15c.116 3.432 1.283 6.432 3.5 9a606.805 606.805 0 0 0-20 21.5 37.885 37.885 0 0 0 10 6l20 4c3.184.754 5.851 2.254 8 4.5z"/><path style="opacity:1" fill="#e3a21c" d="M110.5 11.5c3.676 1.51 6.176 4.178 7.5 8a89.241 89.241 0 0 0 3.5 24 254.166 254.166 0 0 1-18 20c-4.227-5.761-5.06-12.094-2.5-19a89.632 89.632 0 0 1 8-16 61.524 61.524 0 0 0 1.5-17z"/><path style="opacity:1" fill="#e5a41c" d="M142.5 79.5c1.333 2 3 3.667 5 5a49.744 49.744 0 0 1 3.5 12l1 23c.232 1.237.732 2.237 1.5 3a22.36 22.36 0 0 0 5 8.5c-1.988 7.141-5.155 13.641-9.5 19.5a36.87 36.87 0 0 0-5.5-2c-3-2.333-5.667-5-8-8-.829-3.986-1.663-7.986-2.5-12-.752-3.394-.585-6.727.5-10a55.582 55.582 0 0 1-1.5-9c-.374-1.991-1.207-3.658-2.5-5-.919-2.589-2.586-4.59-5-6-1.159-1.75-2.826-2.75-5-3a1251.502 1251.502 0 0 1-28-8c-1.3-1.327-2.633-2.66-4-4 2.023-2.353 4.023-4.686 6-7l7-8c.982-.64 1.982-1.308 3-2a72.527 72.527 0 0 0 10 5.5 224.769 224.769 0 0 1 29 7.5z"/><path style="opacity:1" fill="#141314" d="M142.5 79.5c2.667.667 4.333 2.333 5 5-2-1.333-3.667-3-5-5z"/><path style="opacity:1" fill="#151210" d="M93.5 76.5a3117.118 3117.118 0 0 1-6 7c1.367 1.34 2.7 2.673 4 4-2.245-1.135-4.578-1.635-7-1.5a349.44 349.44 0 0 1-15 16.5c6.882 4.794 14.549 7.294 23 7.5 2.976.705 5.642 1.871 8 3.5a87.038 87.038 0 0 0-18-3.5 152.651 152.651 0 0 0-16-5.5c-4.56-6.64-6.06-13.974-4.5-22a111.421 111.421 0 0 1 11-26c-.265-13.658 2.735-14.324 9-2 .09 8.742.756 17.409 2 26l2 2c2.106-2.618 4.606-4.618 7.5-6z"/><path style="opacity:1" fill="#e3a31c" d="M75.5 48.5c3.002 1.792 4.835 4.459 5.5 8a302.7 302.7 0 0 0 0 20c.272 2.932 1.439 5.432 3.5 7.5a140.477 140.477 0 0 1-17 17.5c-3.142-3.341-4.81-7.341-5-12a64.446 64.446 0 0 1 3.5-15l8-16a31.29 31.29 0 0 0 1.5-10z"/><path style="opacity:1" fill="#253166" d="M91.5 87.5c2.628 1.981 5.628 3.481 9 4.5a1343.31 1343.31 0 0 0 19 3.5c1.159 1.75 2.826 2.75 5 3 2.414 1.41 4.081 3.411 5 6a168.954 168.954 0 0 1 2.5 28c.387 3.099 1.554 5.766 3.5 8 2.333 3 5 5.667 8 8 1.414 1.554 3.081 2.888 5 4a90.853 90.853 0 0 1-13 15.5c-1.667.667-3.333.667-5 0-3.722-2.19-7.389-4.356-11-6.5-1-.333-1.667-1-2-2a98.607 98.607 0 0 1-5.5-12 116.537 116.537 0 0 0-3-26c-1.413-4.248-4.246-6.915-8.5-8-2.358-1.629-5.024-2.795-8-3.5-8.451-.206-16.118-2.706-23-7.5a349.44 349.44 0 0 0 15-16.5c2.422-.135 4.755.365 7 1.5z"/><path style="opacity:1" fill="#161313" d="M91.5 87.5c9.41 2.806 18.744 5.473 28 8a1343.31 1343.31 0 0 1-19-3.5c-3.372-1.019-6.372-2.519-9-4.5z"/><path style="opacity:1" fill="#151315" d="M119.5 95.5c2.174.25 3.841 1.25 5 3-2.174-.25-3.841-1.25-5-3z"/><path style="opacity:1" fill="#0e0d0e" d="M147.5 84.5c2.538 2.745 4.038 6.079 4.5 10 .312 9.353.812 18.687 1.5 28-.768-.763-1.268-1.763-1.5-3l-1-23a49.744 49.744 0 0 0-3.5-12z"/><path style="opacity:1" fill="#13100e" d="m51.5 120.5 1 2a2.429 2.429 0 0 0-2 .5A228.436 228.436 0 0 0 33 141.5c-.717-.544-1.217-1.211-1.5-2-1.91-.074-3.078-1.074-3.5-3-.96-3.133-1.793-6.3-2.5-9.5 1.467-11.067 5.3-21.234 11.5-30.5a83.719 83.719 0 0 0 2-14c4.097 2.196 6.763 5.529 8 10l1 23c.223 2.381 1.39 4.047 3.5 5z"/><path style="opacity:1" fill="#e4a31c" d="M31.5 139.5c-5.068-9.118-5.235-18.452-.5-28a121.398 121.398 0 0 1 7-13 78.984 78.984 0 0 0 3-12 14.505 14.505 0 0 1 4 5l1 25a26.078 26.078 0 0 0 3.5 5 229.082 229.082 0 0 1-18 18z"/><path style="opacity:1" fill="#e5a41c" d="M66.5 104.5a152.651 152.651 0 0 1 16 5.5 87.038 87.038 0 0 1 18 3.5c3.358 2.2 5.858 5.2 7.5 9a3123.93 3123.93 0 0 1 3 26c1.172 4.358 3.339 8.025 6.5 11 .333 1 1 1.667 2 2 3.367 4.18 7.7 7.013 13 8.5-5.332 4.671-11.332 8.337-18 11-2.692.43-5.359.263-8-.5a3585.039 3585.039 0 0 1-12-9c-4.23-8.069-6.064-16.736-5.5-26-.156-2.691-.99-5.024-2.5-7-1.333-3.333-3.667-5.667-7-7-.11-.617-.444-1.117-1-1.5a263.44 263.44 0 0 1-26-7.5l-1-2c1.667-1 3-2.333 4-4a57.484 57.484 0 0 0 9-9l2-3z"/><path style="opacity:1" fill="#161416" d="M129.5 104.5c1.293 1.342 2.126 3.009 2.5 5a55.582 55.582 0 0 0 1.5 9c-1.085 3.273-1.252 6.606-.5 10 .837 4.014 1.671 8.014 2.5 12-1.946-2.234-3.113-4.901-3.5-8a168.954 168.954 0 0 0-2.5-28z"/><path style="opacity:1" fill="#161519" d="M64.5 107.5a57.484 57.484 0 0 1-9 9c2-4 5-7 9-9z"/><path style="opacity:1" fill="#fdfdfd" d="M-.5 117.5c7.427 40.761 31.427 65.427 72 74h-72v-74zM165.5 119.5v72h-73c40.205-7.871 64.538-31.871 73-72z"/><path style="opacity:1" fill="#151313" d="M52.5 122.5a263.44 263.44 0 0 0 26 7.5c.556.383.89.883 1 1.5a977.34 977.34 0 0 1-24-6.5c-1.442-.377-2.442-1.21-3-2.5z"/><path style="opacity:1" fill="#15151b" d="M100.5 113.5c4.254 1.085 7.087 3.752 8.5 8a116.537 116.537 0 0 1 3 26 98.607 98.607 0 0 0 5.5 12c-3.161-2.975-5.328-6.642-6.5-11a3123.93 3123.93 0 0 0-3-26c-1.642-3.8-4.142-6.8-7.5-9z"/><path style="opacity:1" fill="#1b191b" d="M86.5 138.5c1.51 1.976 2.344 4.309 2.5 7-.564 9.264 1.27 17.931 5.5 26-2.824-2.3-4.657-5.3-5.5-9a389.698 389.698 0 0 1-2.5-24z"/></svg>
